Papirus/22x22/mimetypes/text-x-makefile.svg

<?xml version="1.0" encoding="UTF-8" standalone="no"?>
<svg xmlns="http://www.w3.org/2000/svg" height="22" width="22" version="1">
 <g transform="translate(-1,-1)">
  <path d="m5 2c-0.554 0-1 0.446-1 1v18c0 0.554 0.446 1 1 1h14c0.554 0 1-0.446 1-1v-13l-5.5-0.5-0.5-5.5z" fill="#ccc"/>
  <path opacity=".2" d="m5 2c-0.554 0-1 0.446-1 1v0.5c0-0.554 0.446-1 1-1h9l5.5 5.5h0.5l-6-6z" fill="#fff"/>
  <path d="m14 2v5c0 0.5523 0.44772 1 1 1h5l-6-6z" fill="#ebebeb"/>
  <path opacity=".5" style="enable-background:new" d="m10.74 9-0.11133 1.3164a3.9638 3.9289 0 0 0 -1.1582 0.66211l-1.207-0.5625-1.2617 2.1641 1.0957 0.75586a3.9638 3.9289 0 0 0 -0.0607 0.664 3.9638 3.9289 0 0 0 0.0586 0.664l-1.0957 0.752 1.2617 2.166 1.2051-0.561a3.9638 3.9289 0 0 0 1.1602 0.6582l0.111 1.321h2.5234l0.11133-1.3164a3.9638 3.9289 0 0 0 1.1582 -0.66406l1.207 0.5625 1.262-2.166-1.098-0.754a3.9638 3.9289 0 0 0 0.063 -0.662 3.9638 3.9289 0 0 0 -0.059 -0.666l1.0938-0.75-1.2617-2.166-1.2051 0.5625a3.9638 3.9289 0 0 0 -1.16 -0.66l-0.111-1.32h-2.522zm1.26 3a2 2.0002 0 0 1 2 2 2 2.0002 0 0 1 -2 2 2 2.0002 0 0 1 -2 -2 2 2.0002 0 0 1 2 -2z"/>
 </g>
</svg>

<svg xmlns="http://www.w3.org/2000/svg" width="22" height="22" version="1">
 <g transform="translate(-1,-1)">
  <path style="opacity:0.2" d="m 5,2.5 c -0.554,0 -1,0.446 -1,1 v 18 c 0,0.554 0.446,1 1,1 h 14 c 0.554,0 1,-0.446 1,-1 V 8.5 L 14.5,8 14,2.5 Z"/>
  <path style="fill:#cccccc" d="M 5,2 C 4.446,2 4,2.446 4,3 v 18 c 0,0.554 0.446,1 1,1 h 14 c 0.554,0 1,-0.446 1,-1 V 8 L 14.5,7.5 14,2 Z"/>
  <path style="opacity:0.2;fill:#ffffff" d="M 5,2 C 4.446,2 4,2.446 4,3 v 0.5 c 0,-0.554 0.446,-1 1,-1 h 9 L 19.5,8 H 20 L 14,2 Z"/>
  <path style="opacity:0.2" d="m 14,2.5 v 5 c 0,0.5523 0.44772,1 1,1 h 5 z"/>
  <path style="fill:#ebebeb" d="m 14,2 v 5 c 0,0.5523 0.44772,1 1,1 h 5 z"/>
  <path style="opacity:0.5" d="m 10.74,9 -0.111,1.316 A 3.9638,3.9289 0 0 0 9.4707,10.979 L 8.2637,10.416 7.002,12.58 8.0977,13.336 A 3.9638,3.9289 0 0 0 8.0371,14 3.9638,3.9289 0 0 0 8.0957,14.664 L 7,15.416 8.2617,17.582 9.4668,17.021 A 3.9638,3.9289 0 0 0 10.627,17.68 L 10.738,19 h 2.524 l 0.111,-1.316 A 3.9638,3.9289 0 0 0 14.531,17.02 L 15.738,17.582 17,15.416 15.902,14.662 A 3.9638,3.9289 0 0 0 15.965,14 3.9638,3.9289 0 0 0 15.906,13.334 L 17,12.584 15.738,10.418 14.533,10.98 a 3.9638,3.9289 0 0 0 -1.16,-0.66 L 13.262,9 Z M 12,12 a 2,2.0002 0 0 1 2,2 2,2.0002 0 0 1 -2,2 2,2.0002 0 0 1 -2,-2 2,2.0002 0 0 1 2,-2 z"/>
 </g>
</svg>
